svgs/my_brain.svg

<?xml version="1.0" encoding="UTF-8"?>
<svg id="SVGRoot" width="192px" height="192px" version="1.1" viewBox="0 0 192 192" xmlns="http://www.w3.org/2000/svg">
 <g fill="none" stroke="#000" stroke-linecap="round" stroke-linejoin="round" stroke-width="8">
  <path class="a" d="m102.91 78.692 11.515-46.156 23.03-11.54 23.03 23.078-23.03 23.078z"/>
  <path class="a" d="m137.45 20.996-34.545 57.696"/>
  <path class="a" d="m160.48 44.075 11.515 46.156v34.617l-11.515 34.617-23.03 11.54-34.545-23.078v-69.235l23.03 34.617 11.515-46.156 34.545 23.078-46.061 23.078-23.03 34.616"/>
  <path class="a" d="m102.91 147.93h34.545l34.545-23.078"/>
  <path class="a" d="m148.97 101.77-11.515 46.156-11.515-34.616"/>
  <path class="a" d="m89.091 78.692-11.515-46.156-23.03-11.54-23.03 23.079 23.03 23.078z"/>
  <path class="a" d="m54.545 20.996 34.545 57.695"/>
  <path class="a" d="m31.515 44.075-11.515 46.156v34.617l11.515 34.617 23.03 11.539 34.545-23.078v-69.233l-23.03 34.617-11.515-46.156-34.545 23.078 46.061 23.078 23.03 34.616"/>
  <path class="a" d="m89.091 147.93h-34.545l-34.545-23.078"/>
  <path class="a" d="m43.03 101.77 11.515 46.156 11.515-34.616"/>
 </g>
</svg>

<svg xmlns="http://www.w3.org/2000/svg" width="192" height="192" viewBox="0 0 192 192"><g fill="none" stroke="#000" stroke-linecap="round" stroke-linejoin="round" stroke-width="8"><path d="m102.91 78.692 11.515-46.156 23.03-11.54 23.03 23.078-23.03 23.078zM137.45 20.996l-34.545 57.696" class="a"/><path d="m160.48 44.075 11.515 46.156v34.617l-11.515 34.617-23.03 11.54-34.545-23.078V78.692l23.03 34.617 11.515-46.156 34.545 23.078-46.061 23.078-23.03 34.616" class="a"/><path d="M102.91 147.93h34.545L172 124.852" class="a"/><path d="m148.97 101.77-11.515 46.156-11.515-34.616M89.091 78.692 77.576 32.536l-23.03-11.54-23.03 23.079 23.03 23.078zM54.545 20.996 89.09 78.691" class="a"/><path d="M31.515 44.075 20 90.231v34.617l11.515 34.617 23.03 11.539 34.545-23.078V78.693L66.06 113.31 54.545 67.154 20 90.232l46.061 23.078 23.03 34.616" class="a"/><path d="M89.091 147.93H54.546l-34.545-23.078" class="a"/><path d="m43.03 101.77 11.515 46.156L66.06 113.31" class="a"/></g></svg>
